public/logos/open_city.svg

<svg version="1.2" width="52.346" height="52.346" viewBox="25 0 1385 1385" preserveAspectRatio="xMidYMid" fill-rule="evenodd" stroke-width="28.222" stroke-linejoin="round" xmlns="http://www.w3.org/2000/svg"><defs class="ClipPathGroup"><clipPath id="a" clipPathUnits="userSpaceOnUse"><path d="M25 0h1385v1385H25z"/></clipPath></defs><g class="SlideGroup"><g class="Slide" clip-path="url(#a)"><g class="Page"><g class="com.sun.star.drawing.ClosedBezierShape"><path class="BoundingBox" fill="none" d="M25 0h1386v1386H25z"/><path fill="#FFF" d="M1410 693c0 127-29 236-92 346-64 110-144 190-254 254-110 63-219 92-346 92-128 0-236-29-347-92-110-64-189-144-253-254S25 820 25 693c0-128 29-236 93-347 64-110 143-189 253-253C482 29 590 0 718 0c127 0 236 29 346 93s190 143 254 253c63 111 92 219 92 347z"/></g><g class="com.sun.star.drawing.TextShape"><path class="BoundingBox" fill="none" d="M279 844h731v400H279z"/><text class="TextShape"><tspan class="TextParagraph" font-family="Liberation Sans, sans-serif" font-size="423" font-weight="400"><tspan class="TextPosition" x="279" y="1153"><tspan>City</tspan></tspan></tspan></text></g><g class="com.sun.star.drawing.TextShape"><path class="BoundingBox" fill="none" d="M163 345h1044v400H163z"/><text class="TextShape"><tspan class="TextParagraph" font-family="Liberation Sans, sans-serif" font-size="423" font-weight="400"><tspan class="TextPosition" x="163" y="654"><tspan>Open</tspan></tspan></tspan></text></g></g></g></g></svg>

<?xml version="1.0" encoding="UTF-8"?>
<!DOCTYPE svg PUBLIC "-//W3C//DTD SVG 1.1//EN" "http://www.w3.org/Graphics/SVG/1.1/DTD/svg11.dtd">
<svg version="1.2" width="13.85mm" height="13.85mm" viewBox="25 0 1385 1385" preserveAspectRatio="xMidYMid" fill-rule="evenodd" stroke-width="28.222" stroke-linejoin="round" xmlns="http://www.w3.org/2000/svg" xmlns:ooo="http://xml.openoffice.org/svg/export" xmlns:xlink="http://www.w3.org/1999/xlink" xmlns:presentation="http://sun.com/xmlns/staroffice/presentation" xmlns:smil="http://www.w3.org/2001/SMIL20/" xmlns:anim="urn:oasis:names:tc:opendocument:xmlns:animation:1.0" xml:space="preserve">
 <defs class="ClipPathGroup">
  <clipPath id="presentation_clip_path" clipPathUnits="userSpaceOnUse">
   <rect x="25" y="0" width="1385" height="1385"/>
  </clipPath>
  <clipPath id="presentation_clip_path_shrink" clipPathUnits="userSpaceOnUse">
   <rect x="26" y="1" width="1383" height="1383"/>
  </clipPath>
 </defs>
 <defs>
  <font id="EmbeddedFont_1" horiz-adv-x="2048">
   <font-face font-family="Liberation Sans embedded" units-per-em="2048" font-weight="normal" font-style="normal" ascent="1482" descent="423"/>
   <missing-glyph horiz-adv-x="2048" d="M 0,0 L 2047,0 2047,2047 0,2047 0,0 Z"/>
   <glyph unicode="y" horiz-adv-x="1033" d="M 191,-425 C 142,-425 100,-421 67,-414 L 67,-279 C 92,-283 120,-285 151,-285 263,-285 352,-203 417,-38 L 434,5 5,1082 197,1082 425,484 C 428,475 432,464 437,451 442,438 457,394 482,320 507,246 521,205 523,196 L 593,393 830,1082 1020,1082 604,0 C 559,-115 518,-201 479,-258 440,-314 398,-356 351,-384 304,-411 250,-425 191,-425 Z"/>
   <glyph unicode="t" horiz-adv-x="531" d="M 554,8 C 495,-8 434,-16 372,-16 228,-16 156,66 156,229 L 156,951 31,951 31,1082 163,1082 216,1324 336,1324 336,1082 536,1082 536,951 336,951 336,268 C 336,216 345,180 362,159 379,138 408,127 450,127 474,127 509,132 554,141 L 554,8 Z"/>
   <glyph unicode="p" horiz-adv-x="953" d="M 1053,546 C 1053,169 920,-20 655,-20 488,-20 376,43 319,168 L 314,168 C 317,163 318,106 318,-2 L 318,-425 138,-425 138,861 C 138,972 136,1046 132,1082 L 306,1082 C 307,1079 308,1070 309,1054 310,1037 312,1012 314,978 315,944 316,921 316,908 L 320,908 C 352,975 394,1024 447,1055 500,1086 569,1101 655,1101 788,1101 888,1056 954,967 1020,878 1053,737 1053,546 Z M 864,542 C 864,693 844,800 803,865 762,930 698,962 609,962 538,962 482,947 442,917 401,887 371,840 350,777 329,713 318,630 318,528 318,386 341,281 386,214 431,147 505,113 607,113 696,113 762,146 803,212 844,277 864,387 864,542 Z"/>
   <glyph unicode="n" horiz-adv-x="874" d="M 825,0 L 825,686 C 825,757 818,813 804,852 790,891 768,920 737,937 706,954 661,963 602,963 515,963 447,933 397,874 347,815 322,732 322,627 L 322,0 142,0 142,851 C 142,977 140,1054 136,1082 L 306,1082 C 307,1079 307,1070 308,1055 309,1040 310,1024 311,1005 312,986 313,950 314,897 L 317,897 C 358,972 406,1025 461,1056 515,1087 582,1102 663,1102 782,1102 869,1073 924,1014 979,955 1006,857 1006,721 L 1006,0 825,0 Z"/>
   <glyph unicode="i" horiz-adv-x="187" d="M 137,1312 L 137,1484 317,1484 317,1312 137,1312 Z M 137,0 L 137,1082 317,1082 317,0 137,0 Z"/>
   <glyph unicode="e" horiz-adv-x="980" d="M 276,503 C 276,379 302,283 353,216 404,149 479,115 578,115 656,115 719,131 766,162 813,193 844,233 861,281 L 1019,236 C 954,65 807,-20 578,-20 418,-20 296,28 213,123 129,218 87,360 87,548 87,727 129,864 213,959 296,1054 416,1102 571,1102 889,1102 1048,910 1048,527 L 1048,503 276,503 Z M 862,641 C 852,755 823,838 775,891 727,943 658,969 568,969 481,969 412,940 361,882 310,823 282,743 278,641 L 862,641 Z"/>
   <glyph unicode="O" horiz-adv-x="1430" d="M 1495,711 C 1495,564 1467,435 1411,324 1354,213 1273,128 1168,69 1063,10 938,-20 795,-20 650,-20 526,9 421,68 316,127 235,212 180,323 125,434 97,563 97,711 97,936 159,1113 282,1240 405,1367 577,1430 797,1430 940,1430 1065,1402 1170,1345 1275,1288 1356,1205 1412,1096 1467,987 1495,859 1495,711 Z M 1300,711 C 1300,886 1256,1024 1169,1124 1081,1224 957,1274 797,1274 636,1274 511,1225 423,1126 335,1027 291,889 291,711 291,534 336,394 425,291 514,187 637,135 795,135 958,135 1083,185 1170,286 1257,386 1300,528 1300,711 Z"/>
   <glyph unicode="C" horiz-adv-x="1324" d="M 792,1274 C 636,1274 515,1224 428,1124 341,1023 298,886 298,711 298,538 343,400 434,295 524,190 646,137 800,137 997,137 1146,235 1245,430 L 1401,352 C 1343,231 1262,138 1157,75 1052,12 930,-20 791,-20 649,-20 526,10 423,69 319,128 240,212 186,322 131,431 104,561 104,711 104,936 165,1112 286,1239 407,1366 575,1430 790,1430 940,1430 1065,1401 1166,1342 1267,1283 1341,1196 1388,1081 L 1207,1021 C 1174,1103 1122,1166 1050,1209 977,1252 891,1274 792,1274 Z"/>
  </font>
 </defs>
 <defs class="TextShapeIndex">
  <g ooo:slide="id1" ooo:id-list="id3 id4 id5"/>
 </defs>
 <defs class="EmbeddedBulletChars">
  <g id="bullet-char-template-57356" transform="scale(0.00048828125,-0.00048828125)">
   <path d="M 580,1141 L 1163,571 580,0 -4,571 580,1141 Z"/>
  </g>
  <g id="bullet-char-template-57354" transform="scale(0.00048828125,-0.00048828125)">
   <path d="M 8,1128 L 1137,1128 1137,0 8,0 8,1128 Z"/>
  </g>
  <g id="bullet-char-template-10146" transform="scale(0.00048828125,-0.00048828125)">
   <path d="M 174,0 L 602,739 174,1481 1456,739 174,0 Z M 1358,739 L 309,1346 659,739 1358,739 Z"/>
  </g>
  <g id="bullet-char-template-10132" transform="scale(0.00048828125,-0.00048828125)">
   <path d="M 2015,739 L 1276,0 717,0 1260,543 174,543 174,936 1260,936 717,1481 1274,1481 2015,739 Z"/>
  </g>
  <g id="bullet-char-template-10007" transform="scale(0.00048828125,-0.00048828125)">
   <path d="M 0,-2 C -7,14 -16,27 -25,37 L 356,567 C 262,823 215,952 215,954 215,979 228,992 255,992 264,992 276,990 289,987 310,991 331,999 354,1012 L 381,999 492,748 772,1049 836,1024 860,1049 C 881,1039 901,1025 922,1006 886,937 835,863 770,784 769,783 710,716 594,584 L 774,223 C 774,196 753,168 711,139 L 727,119 C 717,90 699,76 672,76 641,76 570,178 457,381 L 164,-76 C 142,-110 111,-127 72,-127 30,-127 9,-110 8,-76 1,-67 -2,-52 -2,-32 -2,-23 -1,-13 0,-2 Z"/>
  </g>
  <g id="bullet-char-template-10004" transform="scale(0.00048828125,-0.00048828125)">
   <path d="M 285,-33 C 182,-33 111,30 74,156 52,228 41,333 41,471 41,549 55,616 82,672 116,743 169,778 240,778 293,778 328,747 346,684 L 369,508 C 377,444 397,411 428,410 L 1163,1116 C 1174,1127 1196,1133 1229,1133 1271,1133 1292,1118 1292,1087 L 1292,965 C 1292,929 1282,901 1262,881 L 442,47 C 390,-6 338,-33 285,-33 Z"/>
  </g>
  <g id="bullet-char-template-9679" transform="scale(0.00048828125,-0.00048828125)">
   <path d="M 813,0 C 632,0 489,54 383,161 276,268 223,411 223,592 223,773 276,916 383,1023 489,1130 632,1184 813,1184 992,1184 1136,1130 1245,1023 1353,916 1407,772 1407,592 1407,412 1353,268 1245,161 1136,54 992,0 813,0 Z"/>
  </g>
  <g id="bullet-char-template-8226" transform="scale(0.00048828125,-0.00048828125)">
   <path d="M 346,457 C 273,457 209,483 155,535 101,586 74,649 74,723 74,796 101,859 155,911 209,963 273,989 346,989 419,989 480,963 531,910 582,859 608,796 608,723 608,648 583,586 532,535 482,483 420,457 346,457 Z"/>
  </g>
  <g id="bullet-char-template-8211" transform="scale(0.00048828125,-0.00048828125)">
   <path d="M -4,459 L 1135,459 1135,606 -4,606 -4,459 Z"/>
  </g>
  <g id="bullet-char-template-61548" transform="scale(0.00048828125,-0.00048828125)">
   <path d="M 173,740 C 173,903 231,1043 346,1159 462,1274 601,1332 765,1332 928,1332 1067,1274 1183,1159 1299,1043 1357,903 1357,740 1357,577 1299,437 1183,322 1067,206 928,148 765,148 601,148 462,206 346,322 231,437 173,577 173,740 Z"/>
  </g>
 </defs>
 <defs class="TextEmbeddedBitmaps"/>
 <g class="SlideGroup">
  <g>
   <g id="container-id1">
    <g id="id1" class="Slide" clip-path="url(#presentation_clip_path)">
     <g class="Page">
      <g class="com.sun.star.drawing.ClosedBezierShape">
       <g id="id3">
        <rect class="BoundingBox" stroke="none" fill="none" x="25" y="0" width="1386" height="1386"/>
        <path fill="rgb(255,255,255)" stroke="none" d="M 1410,693 C 1410,820 1381,929 1318,1039 1254,1149 1174,1229 1064,1293 954,1356 845,1385 718,1385 590,1385 482,1356 371,1293 261,1229 182,1149 118,1039 54,929 25,820 25,693 25,565 54,457 118,346 182,236 261,157 371,93 482,29 590,0 718,0 845,0 954,29 1064,93 1174,157 1254,236 1318,346 1381,457 1410,565 1410,693 Z"/>
       </g>
      </g>
      <g class="com.sun.star.drawing.TextShape">
       <g id="id4">
        <rect class="BoundingBox" stroke="none" fill="none" x="279" y="844" width="731" height="400"/>
        <text class="TextShape"><tspan class="TextParagraph" font-family="Liberation Sans, sans-serif" font-size="423px" font-weight="400"><tspan class="TextPosition" x="279" y="1153"><tspan fill="rgb(0,0,0)" stroke="none">City</tspan></tspan></tspan></text>
       </g>
      </g>
      <g class="com.sun.star.drawing.TextShape">
       <g id="id5">
        <rect class="BoundingBox" stroke="none" fill="none" x="163" y="345" width="1044" height="400"/>
        <text class="TextShape"><tspan class="TextParagraph" font-family="Liberation Sans, sans-serif" font-size="423px" font-weight="400"><tspan class="TextPosition" x="163" y="654"><tspan fill="rgb(0,0,0)" stroke="none">Open</tspan></tspan></tspan></text>
       </g>
      </g>
     </g>
    </g>
   </g>
  </g>
 </g>
</svg>
